!!!OTL: 64. Gas-nign
!!!Genre:	Gas-nign
!!!Mode:	Freygish
!!!Listening/dance:	listening
!!!One_Mode:	no
**kern
*thru
*I"P1
*clefG2
*k[b-e-a-]
*G:frey
*M3/4
*>A
=1
!LO:TX:a:i:t=G-freygish
4g
4bn
4bn
=2
2bn
12a-L
12g
12fJ
=3
4f
(8qa-/
4g)
4g
=4
2.g
=5
(4g
4dd)
4dd
=6
2ee-
12ee-L
12dd
12ccJ
=7
4cc
(8qee-/
4dd)
4dd
=8
2.dd
=9
4g
4gg
4gg
=10
4.ff
8ee-
8ddL
8ccJ
=11
8bnL
8ccJ
4dd
4dd
=12
4.dd
8cc
(8bnL
8a-J)
=13
4g
4f
8gL
8a-J
=14
4.bn
8a-
12ccL
12bn
12a-J
=15
4g
4gg
8ddL
8bnJ
=16
2.g
!!!Begin-Modulation
*G:frey
!LO:TX:a:i:t=G-freygish
=25
(4gg
4dd)
4dd
=26
4.dd
8cc
(8bnL
8a-J)
=27
(4cc
4f)
4f
=28
(8qcc/
2.ff)
=29
4ff
4ee-
(8qee-/
(8ddL)
8ccJ)
=30
4.bn
8g
12ccL
12bn
12a-J
=31
4.g
8gg
8ddL
8bnJ
=32
4g
4r
4r
==
*-
